X: 34
T: Pleasant Moments
C: Scott Joplin
%%abc-version 2.0
%%abcx-abcm2ps-target-version 5.9.1 (29 Sep 2008)
%%abc-creator hum2abc beta
%%abcx-conversion-date 2021/07/20 09:00:57
%%abc-copyright Copyright 2004 by Craig Stuart Sapp
%%abc-edited-by Craig Stuart Sapp
%%abc-edited-by Craig Stuart Sapp
%%abcx-initial-encoding-date 2004/07/05
%%humdrum-veritas 3063284121
%%humdrum-veritas-data 1798450934
%%removed 0's from note length
%%linebreak <none>
%%barnumbers 0
L: 1/4
M: 3/4
N: Derived from pleasant.krn
Q: 1/4=112
%%staves {1 2}
V: 1 clef=treble
V: 2 clef=bass
K: G
[V:1] B,,/D,D,/ G,/E,/ | 
[V:2] B,,,/D,,D,,/ G,,/E,,/ | 
[V:1] B,/DD/ G/E/ | 
[V:2] B,,/D,D,/ G,/E,/ | 
[V:1] B/dd/ g/e/ | 
[V:2] B,/DD/ G/E/ | 
[V:1] d[d2D2] ||  
[V:2] D[B,^G,^E,][CA,F,] & xD,2 ||  
[V:1] [B/G/][dB][d/B/] g/e/ & x2^A | 
[V:2] x[B,G,D,][^A,G,E,] & G,,2^C, | 
[V:1] [e/B/][d/B/][d/B/][c/A/]- [c/A/][^A/F/] | 
[V:2] z[B,G,][CF,] & D,3 | 
[V:1] [B/G/][dB][d/B/] g/e/ & x2^A | 
[V:2] z[B,G,D,][^A,G,E,] & G,,2^C, | 
[V:1] [e/B/][d/B/][d/B/][c/A/]- [c/A/]D/ | 
[V:2] z[B,G,][CF,] & D,3 | 
[V:1] [B/^G/][cA][d/B/][ec] | 
[V:2] D,,[CF,D,][CF,D,] | 
[V:1] [^c/^A/][dB][^a/^c/][bd] | 
[V:2] G,,[B,G,D,][DB,G,] | 
[V:1] [b/d/][d'bf][d'/^a/f/]- [d'/a/f/][^c'/a/e/] | 
[V:2] F,,[DB,F,][E^A,F,] | 
[V:1] [bd][BF]A/^A/ & x2F | 
[V:2] B,D[CF,D,] & [F,2B,,2]x | 
[V:1] [B/G/][dB][d/B/] g/e/ & x2^A | 
[V:2] z[B,G,D,][^A,G,E,] & G,,2^C, | 
[V:1] [e/B/][d/B/][d/B/][c/A/]- [c/A/][^A/F/] | 
[V:2] z[B,G,][CF,] & D,3 | 
[V:1] [B/G/][dBG][d/B/G/][^dBG] | 
[V:2] z[B,G,D,][B,G,^D,] & G,,3 | 
[V:1] [e3c3G3] | 
[V:2] C,/E,G,/C | 
[V:1] [g/e/][fd][e/c/]e & G2[^AG] | 
[V:2] C,[CG,E,]^C, | 
[V:1] g/fe/ e/d/ & [B2G2][BG] | 
[V:2] z[B,G,][B,G,] & D,3 | 
[V:1] [c/F/E/][BFD][A/F/C/]- A/B/ & x2[FC] | 
[V:2] zD,D, & D,,3 | 
[V:1] [G2B,2]A/B/ ||  
[V:2] [D,2G,,2]z ||  
[V:1]  [K:D] c/^B/c/=B/-[BG]- & =G3/G/-x | 
[V:2]  [K:D] E,,[CA,G,][CA,G,] | 
[V:1] [B/G/]cB/ d/c/ & x/G3/-G | 
[V:2] A,,[CA,G,][CA,G,] | 
[V:1] c/^B/c/=B/-[BF]- & F3/F/-x | 
[V:2] D,[DA,F,][DA,F,] | 
[V:1] [B/F/]dc/ e/d/ & x/F3/-F | 
[V:2] A,,[DA,F,][DA,F,] | 
[V:1] [d/B/][BG][g/B/] f/e/ & x2_B | 
[V:2] G,,[DB,G,][D_B,G,] | 
[V:1] e/df/[adA] & A2x | 
[V:2] F,,[DA,F,][=F,=F,,] | 
[V:1] a/^gf/ d/B/ & [d2B2]B/^G/ | 
[V:2] [E,E,,][D^G,E,][DG,E,] | 
[V:1] A2A/B/ | 
[V:2] C2z & A,A,,z | 
[V:1] c/^B/c/=B/-[BG]- & G3/G/-x | 
[V:2] E,,[CA,G,][CA,G,] | 
[V:1] [B/G/]cB/ d/c/ & x/G3/-G | 
[V:2] A,,[CA,G,][CA,G,] | 
[V:1] c/^B/c/=B/-[BF]- & F3/F/-x | 
[V:2] D,[DA,F,][DA,F,] | 
[V:1] [B/F/]dc/ e/d/ & x/F3/-F | 
[V:2] D,[DA,F,][DA,F,] | 
[V:1] dfx & [d'f][d/B/][=c/A/][gBG]- | 
[V:2] B,,D,/^D,/E, | 
[V:1] [g/B/G/][g^cB][f/c/A/][ecG] |[1 
[V:2] A,,[CA,G,][A,A,,] | 
[V:1] [d3F3]- | 
[V:2] A,3- & D,B,,/A,,/- A,,/F,,/ | 
[V:1] [dF]A[B^G] :|][2 
[V:2] A,F,,=F,, & D,,x2 :|]  
[V:1] [d3F3]- | 
[V:2] A,3- & D,B,,/A,,/- A,,/F,,/ | 
[V:1] [dF]A^A & xF2 || 
[V:2] A,[=C2F,2D,2] & D,,x2 ||  
[V:1]  [K:G] [B/G/][dB][d/B/] g/e/ & x2^A | 
[V:2]  [K:G] z[B,G,D,][^A,G,E,] & G,,2^C, | 
[V:1] [B/e/][B/d/][B/d/][A/c/]- [A/c/][F/^A/] | 
[V:2] z[B,G,][CF,] & D,3 | 
[V:1] [G/B/][Bd][B/d/] g/e/ & x2^A | 
[V:2] z[B,G,D,][^A,G,E,] & G,,2^C, | 
[V:1] [B/e/][B/d/][B/d/][A/c/]- [A/c/]D/ | 
[V:2] z[B,G,][CF,] & D,3 | 
[V:1] [^G/B/][Ac][B/d/][ce] | 
[V:2] D,,[CF,D,][CF,D,] | 
[V:1] [^A/^c/][Bd][c/^a/][db] | 
[V:2] G,,[B,G,D,][DB,G,] | 
[V:1] [d/b/][fbd'][f/^a/d'/]- [f/a/d'/][e/a/^c'/] | 
[V:2] F,,[DB,F,][E^A,F,] | 
[V:1] [db][FB]A/^A/ & x2F | 
[V:2] B,D[CF,D,] & [F,2B,,2]x | 
[V:1] [G/B/][Bd][B/d/] g/e/ & x2^A | 
[V:2] z[B,G,D,][^A,G,E,] & G,,2^C, | 
[V:1] [B/e/][B/d/][B/d/][A/c/]- [A/c/][F/^A/] | 
[V:2] z[B,G,][CF,] & D,3 | 
[V:1] [G/B/][GBd][G/B/d/][GB^d] | 
[V:2] z[B,G,D,][B,G,^D,] & G,,3 | 
[V:1] [G3c3e3] | 
[V:2] C,/E,G,/C | 
[V:1] [e/g/][df][c/e/]e & G2[G^A] | 
[V:2] C,[CG,E,]^C, | 
[V:1] g/fe/ e/d/ & [G2B2][GB] | 
[V:2] z[B,G,][B,G,] & D,3 | 
[V:1] [E/F/c/][DFB][C/F/A/]- A/B/ & x2[CF] | 
[V:2] zD,D, & D,,3 | 
[V:1] [B,G][GBdg]z ||  
[V:2] [D,G,,][G,,G,,,]z ||  
[V:1]  [K:C] [C3E3]- | 
[V:2]  [K:C] C,/G,A,/G, | 
[V:1] [C/E/][^D/^F/][E/G/][E/G/c/]-[EGc] | 
[V:2] CG,C, | 
[V:1] [E3A3c3]- | 
[V:2] A,,/E,F,/E, | 
[V:1] [E/A/c/][c/^d/][c/e/][c/e/a/]-[cea] | 
[V:2] A,E,A,, | 
[V:1] b/ag/ f/b/ & [d2f2]d | 
[V:2] G,,[FB,G,][FB,G,] | 
[V:1] b/ag/ f/e/ & [c2e2][G^c] | 
[V:2] [C,C,,][ECG,][A,A,,] | 
[V:1] e/d^c/d & [^F2=c2]F | 
[V:2] D,[=CA,][CD,] | 
[V:1] AGF & =F2D | 
[V:2] CB,2 & G,2G,, | 
[V:1] [C3E3]- | 
[V:2] C,/G,A,/G, | 
[V:1] [C/E/][^D/^F/][E/G/][E/G/c/]-[EGc] | 
[V:2] CG,C, | 
[V:1] [E3A3c3]- | 
[V:2] A,,/E,F,/E, | 
[V:1] [E/A/c/][c/^d/][c/e/][c/e/a/]-[cea] | 
[V:2] A,E,A,, | 
[V:1] b/ag/ f/d'/ & [d2f2]d | 
[V:2] D,,[FDA,][_A,_A,,] | 
[V:1] e'/c'g/ f/e/ & [e2g2][G^c] |[1 
[V:2] [G,G,,][ECG,][A,A,,] | 
[V:1] [^F=cd][=Fcd]d/e/ & x2[FB] |[1 
[V:2] [A,A,,][_A,_A,,][G,G,,] | 
[V:1] [Ec][EG][DF] :|][2 
[V:2] [G,C,]z[B,G,] :|]  
[V:1] [Ec][cegc']z || 
[V:2] [G,C,][C,C,,]z ||  
[V:1]  [K:G] [G/B/][Bd][B/d/] g/e/ & x2^A | 
[V:2]  [K:G] z[B,G,D,][^A,G,E,] & G,,2^C, | 
[V:1] [B/e/][B/d/][B/d/][A/c/]- [A/c/][F/^A/] | 
[V:2] z[B,G,][CF,] & D,3 | 
[V:1] [G/B/][Bd][B/d/] g/e/ & x2^A | 
[V:2] z[B,G,D,][^A,G,E,] & G,,2^C, | 
[V:1] [B/e/][B/d/][B/d/][A/c/]- [A/c/]D/ | 
[V:2] z[B,G,][CF,] & D,3 | 
[V:1] [^G/B/][Ac][B/d/][ce] | 
[V:2] D,,[CF,D,][CF,D,] | 
[V:1] [^A/^c/][Bd][^c/^a/][db] | 
[V:2] G,,[B,G,D,][DB,G,] | 
[V:1] [d/b/][fbd'][f/^a/d'/]- [f/a/d'/][e/a/^c'/] | 
[V:2] F,,[DB,F,][E^A,F,] | 
[V:1] [db][FB]A/^A/ & x2F | 
[V:2] B,D[CF,D,] & [F,2B,,2]x | 
[V:1] [G/B/][Bd][B/d/] g/e/ & x2^A | 
[V:2] z[B,G,D,][^A,G,E,] & G,,2^C, | 
[V:1] [B/e/][B/d/][B/d/][A/c/]- [A/c/][F/^A/] | 
[V:2] z[B,G,][CF,] & D,3 | 
[V:1] [G/B/][GBd][G/B/d/][GB^d] | 
[V:2] z[B,G,D,][B,G,^D,] & G,,3 | 
[V:1] [G3c3e3] | 
[V:2] C,/E,G,/C | 
[V:1] [e/g/][df][c/e/]e & G2[G^A] | 
[V:2] C,[CG,E,]^C, | 
[V:1] g/fe/ e/d/ & [G2B2][GB] | 
[V:2] z[B,G,][B,G,] & D,3 | 
[V:1] [F2c2d2][cdf] | 
[V:2] [D2D,2][DD,] | 
[V:1] [Bdg][Bdg][^A^cg] | 
[V:2] [B,/B,,/][DD,][D/D,/] [G/G,/][E/E,/] | 
[V:1] [^ceg][ceg][ceg] | 
[V:2] [^C/^C,/][D/D,/][E2E,2] | 
[V:1] [=c_eg][ceg][ceg] | 
[V:2] [=C/=C,/][D/D,/][_E2_E,2] | 
[V:1] [Bdg][Bdg][Bdg] | 
[V:2] [D/D,/][C/C,/][B,B,,][DD,] | 
[V:1] [Bdg]e^c | 
[V:2] [G,G,,]E^C | 
[V:1] d^AB | 
[V:2] D^A,B, | 
[V:1] GE^C | 
[V:2] G,E,^C, | 
[V:1] D^A,B, | 
[V:2] D,^A,,B,, | 
[V:1] G,z(3B/_B/A/ | 
[V:2] G,,z(3B,/_B,/A,/ | 
[V:1] Gzz | 
[V:2] G,zz | 
[V:1] !fermata!G,3 | 
[V:2] !fermata![D,3B,,3G,,3] | 
[V:1] !accent![GBdg]zz |]  
[V:2] !accent![G,,G,,,]zz |]  


